public/logos/new-era.svg

<svg fill="none" height="24" viewBox="0 0 190 24" width="190" xmlns="http://www.w3.org/2000/svg"><g fill="#fff"><path d="m41.5168 4.00378h4.2678l.0942 1.96631c1.6004-1.48401 2.6924-1.96631 5.4476-1.96631h7.6506c3.8473 0 5.5858 1.75608 5.5858 5.13839v10.85183h-4.4059v-9.5471c0-2.34972-.3451-2.69599-2.6673-2.69599h-11.5669v12.24309h-4.4059z"/><path d="m66.1821 4.00375h21.5585v3.56162h-17.1589v2.69593h17.1589v3.4689h-17.1589v2.6959h17.1589v3.5617h-21.5585v-15.99024z"/><path d="m88.437 4.00378h4.431l4.2866 11.30942 4.3114-11.30942h4.174l4.356 11.39592 4.38-11.39592h4.431l-6.351 15.99022h-4.801l-4.149-10.27678-4.0105 10.27678h-4.9142z"/><path d="m124.374 4.00375h21.559v3.56162h-17.159v2.69593h17.159v3.4689h-17.159v2.6959h17.159v3.5617h-21.559v-15.99024z"/><path d="m147.558 4.00378h4.268l.094 1.96631c1.601-1.48401 2.686-1.96631 5.448-1.96631h5.31v3.74713h-10.714v12.24309h-4.406z"/><path d="m180.2 18.0276c-1.6 1.4841-2.686 1.9664-5.447 1.9664h-7.212c-3.364 0-5.447-2.0344-5.447-5.1632s2.065-4.95903 5.378-4.95903h12.684v-.2968c0-1.37271-.765-1.83029-1.97-1.83029h-14.561v-3.74712h15.345c3.848 0 5.586 1.75608 5.586 5.13838v10.85186h-4.268l-.094-1.9663zm-12.59-1.8055h12.54v-2.7887h-12.54c-1.023 0-1.531.6369-1.531 1.3913 0 .7543.508 1.3912 1.531 1.3912z"/><path d="m185.51 18.1265c0-1.0635.828-1.8673 1.895-1.8673s1.896.7976 1.896 1.8673c0 1.0698-.829 1.8674-1.896 1.8674s-1.895-.7976-1.895-1.8674zm1.895 1.5211c.873 0 1.544-.6554 1.544-1.5211 0-.8656-.671-1.5211-1.544-1.5211-.872 0-1.544.6555-1.544 1.5211 0 .8657.672 1.5211 1.544 1.5211zm-.954-2.4733h1.312c.383 0 .596.204.596.5689 0 .2844-.113.4452-.332.507.175.0186.276.1051.276.303v.5503h-.559v-.5503c0-.0804-.044-.1175-.119-.1175h-.609v.6678h-.558v-1.923zm1.155.8224c.113 0 .176-.0804.176-.1917s-.063-.1917-.176-.1917h-.596v.3772h.596z"/><path d="m2.88717 22.6466c.15063 1.1192 1.22385 1.6077 2.341 1.2243 1.05439-.371 9.80333-3.7719 11.18403-4.2975 1.8703-.7111 2.8996-.8347 3.2385.031.546 1.385 2.1904 1.453 4.1485.3524 1.7699-.9893 9.1757-5.2002 9.1757-5.2002s-3.4142-5.31154-3.7719-5.86804c-.5272-.82239-1.1988-1.46547-2.6611-1.72517-1.0356-.17932-9.0439-1.5953-9.0439-1.5953-.4707-1.03262-1.7887-2.11472-3.7029-2.59084l-11.85563-2.9185519c-1.173631-.2906191-2.083669.5317699-1.9204899 1.7189819 0 0 2.7112899 19.76822 2.8619099 20.86892m28.61291-8.3229s-5.2971 2.3188-6.659 2.9186c-1.6757.7358-3.1632.6493-3.6904-.5627-.2447-.5627-1.3305-.5318-3.4016.0742l-10.56276 3.0361-.74058-3.5493s8.45394-1.5335 10.39954-1.8859c1.9519-.3587 3.2197-.1484 3.7406 1.045.138.3091.2071.4699.2071.4699l9.8849-2.8505.8159 1.317zm-2.2218-3.5616.7469 1.1996-7.1423 1.2923-.9665-1.9601zm-2.4351-2.54135c.6778.0742 1.1046.39574 1.3242.75438.0628.10511.3013.4823.3013.4823l-7.5565-.21642-.8661-1.77463s6.2322.69254 6.7971.75437zm-18.81586-5.00854s.37657 1.25523.40795 1.40363c.01255-.69872.659-1.19339 1.48745-1.03262.82216.16077 2.11506.42047 2.64856.52559 2.3598.46376 3.4644.87185 4.3368 2.8629l2.7677 6.33179c-.6025-.3834-1.3933-.5256-3.3953-.2721l-.4896.0619s-1.3996-3.74717-1.8138-4.86018c-.4205-1.11919-.9163-1.80555-2.2657-1.96632-.3765-.04328-2.88699-.34008-2.88699-.34008l2.27199 7.76018-5.03976.6368-2.48535-11.98333 4.46233.87803z"/></g></svg>

<svg width="190" height="24" viewBox="0 0 190 24" fill="none" xmlns="http://www.w3.org/2000/svg">
<path d="M41.5168 4.00378H45.7846L45.8788 5.97009C47.4792 4.48608 48.5712 4.00378 51.3264 4.00378H58.977C62.8243 4.00378 64.5628 5.75986 64.5628 9.14217V19.994H60.1569V10.4469C60.1569 8.09718 59.8118 7.75091 57.4896 7.75091H45.9227V19.994H41.5168V4.00378Z" fill="white"/>
<path d="M66.1821 4.00375H87.7406V7.56537H70.5817V10.2613H87.7406V13.7302H70.5817V16.4261H87.7406V19.9878H66.1821V3.99756V4.00375Z" fill="white"/>
<path d="M88.437 4.00378H92.868L97.1546 15.3132L101.466 4.00378H105.64L109.996 15.3997L114.376 4.00378H118.807L112.456 19.994H107.655L103.506 9.71722L99.4955 19.994H94.5813L88.437 4.00378Z" fill="white"/>
<path d="M124.374 4.00375H145.933V7.56537H128.774V10.2613H145.933V13.7302H128.774V16.4261H145.933V19.9878H124.374V3.99756V4.00375Z" fill="white"/>
<path d="M147.558 4.00378H151.826L151.92 5.97009C153.521 4.48608 154.606 4.00378 157.368 4.00378H162.678V7.75091H151.964V19.994H147.558V4.00378Z" fill="white"/>
<path d="M180.2 18.0276C178.6 19.5117 177.514 19.994 174.753 19.994H167.541C164.177 19.994 162.094 17.9596 162.094 14.8308C162.094 11.702 164.159 9.87177 167.472 9.87177H180.156V9.57497C180.156 8.20226 179.391 7.74468 178.186 7.74468H163.625V3.99756H178.97C182.818 3.99756 184.556 5.75364 184.556 9.13594V19.9878H180.288L180.194 18.0215L180.2 18.0276ZM167.61 16.2221H180.15V13.4334H167.61C166.587 13.4334 166.079 14.0703 166.079 14.8247C166.079 15.579 166.587 16.2159 167.61 16.2159V16.2221Z" fill="white"/>
<path d="M185.51 18.1265C185.51 17.063 186.338 16.2592 187.405 16.2592C188.472 16.2592 189.301 17.0568 189.301 18.1265C189.301 19.1963 188.472 19.9939 187.405 19.9939C186.338 19.9939 185.51 19.1963 185.51 18.1265ZM187.405 19.6476C188.278 19.6476 188.949 18.9922 188.949 18.1265C188.949 17.2609 188.278 16.6054 187.405 16.6054C186.533 16.6054 185.861 17.2609 185.861 18.1265C185.861 18.9922 186.533 19.6476 187.405 19.6476ZM186.451 17.1743H187.763C188.146 17.1743 188.359 17.3783 188.359 17.7432C188.359 18.0276 188.246 18.1884 188.027 18.2502C188.202 18.2688 188.303 18.3553 188.303 18.5532V19.1035H187.744V18.5532C187.744 18.4728 187.7 18.4357 187.625 18.4357H187.016V19.1035H186.458V17.1805L186.451 17.1743ZM187.606 17.9967C187.719 17.9967 187.782 17.9163 187.782 17.805C187.782 17.6937 187.719 17.6133 187.606 17.6133H187.01V17.9905H187.606V17.9967Z" fill="white"/>
<path d="M2.88717 22.6466C3.0378 23.7658 4.11102 24.2543 5.22817 23.8709C6.28256 23.4999 15.0315 20.099 16.4122 19.5734C18.2825 18.8623 19.3118 18.7387 19.6507 19.6044C20.1967 20.9894 21.8411 21.0574 23.7992 19.9568C25.5691 18.9675 32.9749 14.7566 32.9749 14.7566C32.9749 14.7566 29.5607 9.44506 29.203 8.88856C28.6758 8.06617 28.0042 7.42309 26.5419 7.16339C25.5063 6.98407 17.498 5.56809 17.498 5.56809C17.0273 4.53547 15.7093 3.45337 13.7951 2.97725L1.93947 0.0586981C0.765839 -0.231921 -0.144199 0.590468 0.0189801 1.77768C0.0189801 1.77768 2.73027 21.5459 2.88089 22.6466M31.4938 14.3237C31.4938 14.3237 26.1967 16.6425 24.8348 17.2423C23.1591 17.9781 21.6716 17.8916 21.1444 16.6796C20.8997 16.1169 19.8139 16.1478 17.7428 16.7538L7.18004 19.7899L6.43946 16.2406C6.43946 16.2406 14.8934 14.7071 16.839 14.3547C18.7909 13.996 20.0587 14.2063 20.5796 15.3997C20.7176 15.7088 20.7867 15.8696 20.7867 15.8696L30.6716 13.0191L31.4875 14.3361L31.4938 14.3237ZM29.272 10.7621L30.0189 11.9617L22.8766 13.254L21.9101 11.2939L29.272 10.7621ZM26.8369 8.22075C27.5147 8.29495 27.9415 8.61649 28.1611 8.97513C28.2239 9.08024 28.4624 9.45743 28.4624 9.45743L20.9059 9.24101L20.0398 7.46638C20.0398 7.46638 26.272 8.15892 26.8369 8.22075ZM8.02104 3.21221C8.02104 3.21221 8.39761 4.46744 8.42899 4.61584C8.44154 3.91712 9.08799 3.42245 9.91644 3.58322C10.7386 3.74399 12.0315 4.00369 12.565 4.10881C14.9248 4.57257 16.0294 4.98066 16.9018 6.97171L19.6695 13.3035C19.067 12.9201 18.2762 12.7779 16.2742 13.0314L15.7846 13.0933C15.7846 13.0933 14.385 9.34613 13.9708 8.23312C13.5503 7.11393 13.0545 6.42757 11.7051 6.2668C11.3286 6.22352 8.81811 5.92672 8.81811 5.92672L11.0901 13.6869L6.05034 14.3237L3.56499 2.34037L8.02732 3.2184L8.02104 3.21221Z" fill="white"/>
</svg>
